X: 674
T: After The Battle Of Aughrim
R: march
M: 
K: Adorian
M:4/4
|:E2A2 A2B/c/d|e2dB c3A|B2G2 GFGA|B/A/G AG E2D2|
E2A2 A2B/c/d|e2ed eaag|e3d BedB|1 A2AG ABAG:|2 A4 A4||
|:a2e2 e2fg|abag e3f/g/|abaf g2g/f/e|d2B>d G3b|
a3e ebc'b|abag e3d|B2e2 d2B2|1 A3B c/A/B/c/ d/e/g/e/:|2 A3G ABAG||

